dist/img/svg/photo-icon.svg

<svg width="40" height="37" viewBox="0 0 40 37" fill="none" xmlns="http://www.w3.org/2000/svg">
<path fill-rule="evenodd" clip-rule="evenodd" d="M37.4183 36.6667H2.57083C1.19833 36.6667 0 35.545 0 34.1667V9.16668C0 7.78752 1.19833 6.66585 2.57083 6.66585H37.4183C38.7908 6.66585 40 7.78752 40 9.16668V34.1667C40 35.545 38.7908 36.6667 37.4183 36.6667ZM38.3333 9.16668C38.3333 8.70668 37.8758 8.33252 37.4183 8.33252H2.57083C2.11333 8.33252 1.66667 8.70668 1.66667 9.16668V26.7083L11.9833 17.7033C12.3117 17.4175 12.8067 17.435 13.1142 17.7442L22.5617 27.2325L28.6233 22.6658C28.9583 22.4142 29.4242 22.4525 29.7158 22.7509L38.3333 31.6234V9.16668ZM38.3333 34.0092L29.0367 24.4384L22.9817 29C22.6517 29.2492 22.1892 29.2159 21.8975 28.9217L12.4875 19.4717L1.66667 28.9167V34.1667C1.66667 34.6259 2.11333 34.9992 2.57083 34.9992H37.4183C37.8758 34.9992 38.3333 34.6259 38.3333 34.1667V34.0092ZM26.6325 15.835C26.6325 14.455 27.7508 13.3333 29.125 13.3333C30.495 13.3333 31.6108 14.455 31.6108 15.835C31.6108 17.2117 30.495 18.3325 29.125 18.3325C27.7508 18.3325 26.6325 17.2117 26.6325 15.835ZM29.9517 15.835C29.9517 15.3742 29.5808 15 29.125 15C28.6658 15 28.2917 15.3742 28.2917 15.835C28.2917 16.2934 28.6658 16.6667 29.125 16.6667C29.5808 16.6667 29.9517 16.2934 29.9517 15.835ZM36.5892 5.00002H2.57083C2.11333 5.00002 1.74167 4.62668 1.74167 4.16668C1.74167 3.70585 2.11333 3.33335 2.57083 3.33335H36.5892C37.0475 3.33335 37.4183 3.70585 37.4183 4.16668C37.4183 4.62668 37.0475 5.00002 36.5892 5.00002ZM34.9292 1.66585H4.23083C3.7725 1.66585 3.40083 1.29335 3.40083 0.832515C3.40083 0.372515 3.7725 1.52588e-05 4.23083 1.52588e-05H34.9292C35.3875 1.52588e-05 35.7592 0.372515 35.7592 0.832515C35.7592 1.29335 35.3875 1.66585 34.9292 1.66585Z" fill="#F2C94C"/>
<path fill-rule="evenodd" clip-rule="evenodd" d="M37.4183 36.6667H2.57083C1.19833 36.6667 0 35.545 0 34.1667V9.16668C0 7.78752 1.19833 6.66585 2.57083 6.66585H37.4183C38.7908 6.66585 40 7.78752 40 9.16668V34.1667C40 35.545 38.7908 36.6667 37.4183 36.6667ZM38.3333 9.16668C38.3333 8.70668 37.8758 8.33252 37.4183 8.33252H2.57083C2.11333 8.33252 1.66667 8.70668 1.66667 9.16668V26.7083L11.9833 17.7033C12.3117 17.4175 12.8067 17.435 13.1142 17.7442L22.5617 27.2325L28.6233 22.6658C28.9583 22.4142 29.4242 22.4525 29.7158 22.7509L38.3333 31.6234V9.16668ZM38.3333 34.0092L29.0367 24.4384L22.9817 29C22.6517 29.2492 22.1892 29.2159 21.8975 28.9217L12.4875 19.4717L1.66667 28.9167V34.1667C1.66667 34.6259 2.11333 34.9992 2.57083 34.9992H37.4183C37.8758 34.9992 38.3333 34.6259 38.3333 34.1667V34.0092ZM26.6325 15.835C26.6325 14.455 27.7508 13.3333 29.125 13.3333C30.495 13.3333 31.6108 14.455 31.6108 15.835C31.6108 17.2117 30.495 18.3325 29.125 18.3325C27.7508 18.3325 26.6325 17.2117 26.6325 15.835ZM29.9517 15.835C29.9517 15.3742 29.5808 15 29.125 15C28.6658 15 28.2917 15.3742 28.2917 15.835C28.2917 16.2934 28.6658 16.6667 29.125 16.6667C29.5808 16.6667 29.9517 16.2934 29.9517 15.835ZM36.5892 5.00002H2.57083C2.11333 5.00002 1.74167 4.62668 1.74167 4.16668C1.74167 3.70585 2.11333 3.33335 2.57083 3.33335H36.5892C37.0475 3.33335 37.4183 3.70585 37.4183 4.16668C37.4183 4.62668 37.0475 5.00002 36.5892 5.00002ZM34.9292 1.66585H4.23083C3.7725 1.66585 3.40083 1.29335 3.40083 0.832515C3.40083 0.372515 3.7725 1.52588e-05 4.23083 1.52588e-05H34.9292C35.3875 1.52588e-05 35.7592 0.372515 35.7592 0.832515C35.7592 1.29335 35.3875 1.66585 34.9292 1.66585Z" fill="url(#paint0_linear)"/>
<defs>
<linearGradient id="paint0_linear" x1="0" y1="1.52588e-05" x2="40" y2="37" gradientUnits="userSpaceOnUse">
<stop stop-color="white" stop-opacity="0.5"/>
<stop offset="1" stop-color="white" stop-opacity="0.1"/>
</linearGradient>
</defs>
</svg>

<svg width="40" height="37" viewBox="0 0 40 37" fill="none" xmlns="http://www.w3.org/2000/svg"><path fill-rule="evenodd" clip-rule="evenodd" d="M37.418 36.667H2.571c-1.373 0-2.571-1.122-2.571-2.5v-25c0-1.38 1.198-2.501 2.57-2.501h34.848c1.373 0 2.582 1.122 2.582 2.5v25c0 1.379-1.21 2.5-2.582 2.5zm.915-27.5c0-.46-.457-.834-.915-.834H2.571c-.458 0-.904.374-.904.834v17.541l10.316-9.005a.829.829 0 011.131.041l9.448 9.489 6.061-4.567a.829.829 0 011.093.085l8.617 8.872V9.167zm0 24.842l-9.296-9.57L22.982 29a.825.825 0 01-1.084-.078l-9.41-9.45-10.821 9.445v5.25c0 .459.446.832.904.832h34.847c.458 0 .915-.373.915-.832v-.158zm-11.7-18.174a2.5 2.5 0 012.492-2.502 2.497 2.497 0 012.486 2.502 2.495 2.495 0 01-2.486 2.497 2.498 2.498 0 01-2.492-2.497zm3.319 0a.832.832 0 00-.827-.835.834.834 0 000 1.667.83.83 0 00.827-.832zM36.589 5H2.571a.832.832 0 01-.83-.833c0-.461.372-.834.83-.834h34.018a.83.83 0 01.83.834c0 .46-.371.833-.83.833zm-1.66-3.334H4.231A.831.831 0 013.4.833c0-.46.372-.833.83-.833h30.698c.459 0 .83.373.83.833 0 .46-.371.833-.83.833z" fill="#F2C94C"/><path fill-rule="evenodd" clip-rule="evenodd" d="M37.418 36.667H2.571c-1.373 0-2.571-1.122-2.571-2.5v-25c0-1.38 1.198-2.501 2.57-2.501h34.848c1.373 0 2.582 1.122 2.582 2.5v25c0 1.379-1.21 2.5-2.582 2.5zm.915-27.5c0-.46-.457-.834-.915-.834H2.571c-.458 0-.904.374-.904.834v17.541l10.316-9.005a.829.829 0 011.131.041l9.448 9.489 6.061-4.567a.829.829 0 011.093.085l8.617 8.872V9.167zm0 24.842l-9.296-9.57L22.982 29a.825.825 0 01-1.084-.078l-9.41-9.45-10.821 9.445v5.25c0 .459.446.832.904.832h34.847c.458 0 .915-.373.915-.832v-.158zm-11.7-18.174a2.5 2.5 0 012.492-2.502 2.497 2.497 0 012.486 2.502 2.495 2.495 0 01-2.486 2.497 2.498 2.498 0 01-2.492-2.497zm3.319 0a.832.832 0 00-.827-.835.834.834 0 000 1.667.83.83 0 00.827-.832zM36.589 5H2.571a.832.832 0 01-.83-.833c0-.461.372-.834.83-.834h34.018a.83.83 0 01.83.834c0 .46-.371.833-.83.833zm-1.66-3.334H4.231A.831.831 0 013.4.833c0-.46.372-.833.83-.833h30.698c.459 0 .83.373.83.833 0 .46-.371.833-.83.833z" fill="url(#paint0_linear)"/><defs><linearGradient id="paint0_linear" x1="0" y1="0" x2="40" y2="37" gradientUnits="userSpaceOnUse"><stop stop-color="#fff" stop-opacity=".5"/><stop offset="1" stop-color="#fff" stop-opacity=".1"/></linearGradient></defs></svg>
